X:2
T:Aka Polka
M:2/4
L:1/8
C:Taz Tarry
S:Copyright B.Tarry, 8th. May 1989
R:Polka
Q:1/4=130
K:D
f>e dB|AFA2|AB FB|FA F/2E/2D|f>e dB|AF A2|AB/2A/2 fe|d2 d2:|
AF/2A/2 BA|FED2|Bc de|fe c/2B/2A|AF/2A/2 BA|FED2|AB/2A/2 fe|d2d2:|

